svg/other/star_topper_line.svg

<svg xmlns="http://www.w3.org/2000/svg" width="24" height="24" viewBox="0 0 24 24"><g fill="none" fill-rule="evenodd"><path d="M24,0 L24,24 L0,24 L0,0 L24,0 Z M12.5935,23.2578 L12.5819,23.2595 L12.5109,23.295 L12.4919,23.2987 L12.4767,23.295 L12.4057,23.2595 C12.3958,23.2564 12.387,23.259 12.3821,23.2649 L12.378,23.2758 L12.3609,23.7031 L12.3659,23.7235 L12.3769,23.7357 L12.4805,23.8097 L12.4953,23.8136 L12.5071,23.8097 L12.6107,23.7357 L12.6233,23.7197 L12.6267,23.7031 L12.6096,23.2758 C12.6076,23.2657 12.601,23.2593 12.5935,23.2578 Z M12.8584,23.1453 L12.8445,23.1473 L12.6598,23.2397 L12.6499,23.2499 L12.6472,23.2611 L12.6651,23.6906 L12.6699,23.7034 L12.6784,23.7105 L12.8793,23.8032 C12.8914,23.8069 12.9022,23.803 12.9078,23.7952 L12.9118,23.7812 L12.8777,23.1665 C12.8753,23.1546 12.8674,23.147 12.8584,23.1453 Z M12.143,23.1473 C12.1332,23.1424 12.1222,23.1453 12.1156,23.1526 L12.1099,23.1665 L12.0758,23.7812 C12.0751,23.7927 12.0828,23.8019 12.0926,23.8046 L12.1083,23.8032 L12.3092,23.7105 L12.3186,23.7024 L12.3225,23.6906 L12.3404,23.2611 L12.3372,23.2485 L12.3278,23.2397 L12.143,23.1473 Z"/><path fill="#09244B" d="M11.9999,1 C12.3558,1 12.6849,1.18916 12.8641,1.4967 L14.9052,5.0012 L18.869,5.85953 C19.2168,5.93486 19.4984,6.18938 19.6084,6.52786 C19.7184,6.86635 19.6402,7.23778 19.403,7.50317 L16.7008,10.5274 L17.1094,14.5624 C17.1452,14.9165 16.9902,15.2629 16.7022,15.4721 C16.4143,15.6813 16.0369,15.7217 15.7112,15.5782 L14.6691,15.119 L15.9743,20.7751 C16.0429,21.0721 15.9722,21.3841 15.7825,21.6226 C15.5928,21.861 15.3047,22 14.9999,22 L8.99994,22 C8.6952,22 8.40708,21.861 8.21736,21.6226 C8.02764,21.3841 7.95703,21.0721 8.02555,20.7751 L9.33082,15.119 L8.2887,15.5782 C7.96301,15.7217 7.58559,15.6813 7.29766,15.4721 C7.00973,15.2629 6.85468,14.9165 6.89053,14.5624 L7.29907,10.5274 L4.59686,7.50317 C4.35972,7.23778 4.28151,6.86635 4.39149,6.52786 C4.50147,6.18938 4.78307,5.93486 5.13091,5.85953 L9.09465,5.0012 L11.1358,1.4967 C11.315,1.18916 11.644,1 11.9999,1 Z M11.6157,14.1121 L10.257,20 L13.7429,20 L12.3841,14.1121 L11.9999,13.9428 L11.6157,14.1121 Z M11.9999,3.98689 L10.6011,6.38858 C10.4598,6.63119 10.223,6.80321 9.94861,6.86263 L7.23219,7.45086 L9.08407,9.52342 C9.27113,9.73278 9.36157,10.0111 9.33329,10.2905 L9.05331,13.0557 L11.5967,11.9349 C11.8536,11.8217 12.1463,11.8217 12.4032,11.9349 L14.9466,13.0557 L14.6666,10.2904 C14.6383,10.0111 14.7288,9.73278 14.9158,9.52342 L16.7677,7.45086 L14.0513,6.86263 C13.7769,6.80321 13.5401,6.63119 13.3988,6.38858 L11.9999,3.98689 Z"/></g></svg>

<svg xmlns="http://www.w3.org/2000/svg" width="24" height="24"><g fill="none" fill-rule="evenodd"><path d="M24 0v24H0V0zM12.594 23.258l-.012.002-.071.035-.02.004-.014-.004-.071-.036c-.01-.003-.019 0-.024.006l-.004.01-.017.428.005.02.01.013.104.074.015.004.012-.004.104-.074.012-.016.004-.017-.017-.427c-.002-.01-.009-.017-.016-.018m.264-.113-.014.002-.184.093-.01.01-.003.011.018.43.005.012.008.008.201.092c.012.004.023 0 .029-.008l.004-.014-.034-.614c-.003-.012-.01-.02-.02-.022m-.715.002a.023.023 0 0 0-.027.006l-.006.014-.034.614c0 .012.007.02.017.024l.015-.002.201-.093.01-.008.003-.011.018-.43-.003-.012-.01-.01z"/><path fill="#09244B" d="M12 1a1 1 0 0 1 .864.497L14.905 5l3.964.859a1 1 0 0 1 .534 1.643l-2.702 3.024.408 4.035a1 1 0 0 1-1.398 1.016l-1.042-.459 1.305 5.656A1 1 0 0 1 15 22H9a1 1 0 0 1-.974-1.225L9.33 15.12l-1.042.46a1 1 0 0 1-1.398-1.017l.408-4.035-2.702-3.024A1 1 0 0 1 5.13 5.86L9.095 5l2.04-3.504A1 1 0 0 1 12 1m-.384 13.112L10.257 20h3.486l-1.359-5.888-.384-.17zM12 3.987 10.6 6.389a1 1 0 0 1-.652.474l-2.717.588 1.852 2.072a1 1 0 0 1 .25.768l-.28 2.765 2.543-1.121a1 1 0 0 1 .806 0l2.544 1.12-.28-2.765a1 1 0 0 1 .249-.767l1.852-2.072-2.717-.588a1 1 0 0 1-.652-.474z"/></g></svg>
